!!!COM: Music21
!!!OTL: Marcha
!!!OMV: pezas_marchas_marcha-2_marcha-partitura.musicxml
**kern
*I"Bagpipes
*I'Bag
*clefG^2
*k[]
*M2/4
=1
!LO:TX:a:t=Lento
*MM48
!LO:TX:a:t=[quarter]=48
4.r
8ee
=||
8ggL
8ggJ
8ggL
8ffJ
=
8aaL
8aaJ
8bb-XL
8cccJ
=
8.ggL
16ffJk
16eeLL
16dd
16ee
16ffJJ
=
[2gg
=
4.gg]
8ee
=
8ggL
8ggJ
8ggL
8ffJ
=
8aaL
8aaJ
8bb-XL
8cccJ
!!linebreak:original
=
8.ggL
16ffJk
16eeLL
16dd
16ee
16ffJJ
!!linebreak:original
=
8gg
24eeLL
24gg
24eeJJ
[4cc
=
4.cc_
16ccLL]
16eeJJ
=||
[2dd
=
4.dd_
16ddLL]
16eeJJ
=
16ggLL
16ff
16ff
16eeJJ
16eeLL
16dd
16b
16ccJJ
=
[2dd
=
4.dd_
16ddLL]
16eeJJ
=
16ggLL
16ff
16ff
16eeJJ
16eeLL
16dd
16b
16ccJJ
!!linebreak:original
=
16ddLL
16ee
16ff
16eeJJ
16ggLL
16ff
16dd
16eeJJ
=
[2cc
=
4.cc_
16ccLL]
16eeJJ
=||
[2dd
=
4.dd_
16ddLL]
16eeJJ
=
16ggLL
16ff
16ff
16eeJJ
16eeLL
16dd
16b
16ccJJ
=
[2dd
=
4.dd_
16ddLL]
16eeJJ
!!linebreak:original
=
16ggLL
16ff
16ff
16eeJJ
16eeLL
16dd
16b
16ccJJ
!!linebreak:original
=
16ddLL
16ee
16ff
16eeJJ
16ggLL
16ff
16dd
16eeJJ
=
[2cc
=
4.cc]
8ee
==
*-
